assets/post/images/formatstring4.svg

<svg xmlns="http://www.w3.org/2000/svg" width="3265" height="1304" overflow="hidden"><defs><clipPath id="a"><path d="M485 291h3265v1304H485z"/></clipPath></defs><g clip-path="url(#a)" transform="translate(-485 -291)"><path fill="#d74514" fill-rule="evenodd" d="M1542.52 744.705h1150.42v133.833H1542.52Z"/><path fill="#fdefe8" fill-rule="evenodd" d="M1542.52 878.538h1150.42v133.832H1542.52Zm0 133.832h1150.42v133.84H1542.52Z"/><path fill="#f8ccb9" fill-rule="evenodd" d="M1542.52 1146.21h1150.42v133.83H1542.52Z"/><path fill="none" stroke="#000" stroke-linejoin="round" stroke-miterlimit="10" stroke-width="6.875" d="M1539.08 610.872h1157.3m-1157.3 133.833h1157.3m-1157.3 133.833h1157.3m-1157.3 133.832h1157.3m-1157.3 133.84h1157.3m-1157.3 133.83h1157.3m-1157.3 133.83h1157.3M1542.52 477.038V1547.71M2692.94 477.038V1547.71"/><text fill="#fff" font-family="Courier New,Courier New_MSFontService,sans-serif" font-size="83" font-weight="400" transform="translate(1871.37 835)">#?6^#$gf(*<tspan x="72.749" y="135" fill="#000" font-family="Times New Roman,Times New Roman_MSFontService,sans-serif">Value of </tspan><tspan x="370.688" y="135" fill="#000">b</tspan><tspan x="72.749" y="269" fill="#000" font-family="Times New Roman,Times New Roman_MSFontService,sans-serif">Value of </tspan><tspan x="370.688" y="269" fill="#000">a</tspan><tspan x="-158.125" y="409" fill="#000" font-family="Times New Roman,Times New Roman_MSFontService,sans-serif">Address of format string</tspan></text><path d="M2783.08 477.5v1029.42h-9.16V477.5Zm18.34 1024.83-22.92 45.84-22.92-45.84Z"/><text font-family="Courier New,Courier New_MSFontService,sans-serif" font-size="83" font-weight="400" transform="translate(893.727 790)">p<tspan x="49.271" y="0">rintf</tspan><tspan x="295.625" y="0">()</tspan><tspan x="394.167" y="0" font-family="Times New Roman,Times New Roman_MSFontService,sans-serif">’s</tspan><tspan x="-57.269" y="105" font-family="Times New Roman,Times New Roman_MSFontService,sans-serif">internal pointer</tspan></text><path d="M1376.5 820.083h124.896v-9.167H1376.5Zm120.313 18.333 45.833-22.916-45.834-22.917Z"/><text font-family="Times New Roman,Times New Roman_MSFontService,sans-serif" font-size="83" font-weight="400" transform="translate(2834.79 993)">s<tspan x="32.083" y="0">tack grows</tspan><tspan x="0" y="99">in this direction</tspan></text><path fill="#ff0" fill-rule="evenodd" d="M3044.14 318.342h176.45v83h-176.45Z"/><text fill="#0070c0" font-family="Courier New,Courier New_MSFontService,sans-serif" font-size="73" font-weight="400" transform="translate(529.604 378)">p<tspan x="44.115" y="0">rintf</tspan><tspan x="264.688" y="0" fill="#000">(</tspan><tspan x="308.802" y="0" fill="#7030a0">“a has value </tspan><tspan x="882.292" y="0" fill="#7030a0" font-weight="700">%d</tspan><tspan x="970.521" y="0" fill="#7030a0">, b has value </tspan><tspan x="1588.13" y="0" fill="#7030a0" font-weight="700">%d</tspan><tspan x="1676.35" y="0" fill="#7030a0">, c is at address: </tspan><tspan x="2514.53" y="0" fill="#7030a0" font-weight="700">%08x</tspan><tspan x="2690.99" y="0" fill="#548235">\</tspan><tspan x="2735.1" y="0" fill="#548235">n</tspan><tspan x="2779.22" y="0" fill="#7030a0">”</tspan><tspan x="2823.33" y="0" fill="#000">, a, b);</tspan></text></g></svg>

<svg width="3265" height="1304" xmlns="http://www.w3.org/2000/svg" xmlns:xlink="http://www.w3.org/1999/xlink" overflow="hidden"><defs><clipPath id="clip0"><rect x="485" y="291" width="3265" height="1304"/></clipPath></defs><g clip-path="url(#clip0)" transform="translate(-485 -291)"><path d="M1542.52 744.705 2692.94 744.705 2692.94 878.538 1542.52 878.538Z" fill="#D74514" fill-rule="evenodd"/><path d="M1542.52 878.538 2692.94 878.538 2692.94 1012.37 1542.52 1012.37Z" fill="#FDEFE8" fill-rule="evenodd"/><path d="M1542.52 1012.37 2692.94 1012.37 2692.94 1146.21 1542.52 1146.21Z" fill="#FDEFE8" fill-rule="evenodd"/><path d="M1542.52 1146.21 2692.94 1146.21 2692.94 1280.04 1542.52 1280.04Z" fill="#F8CCB9" fill-rule="evenodd"/><path d="M1539.08 610.872 2696.38 610.872" stroke="#000000" stroke-width="6.875" stroke-linejoin="round" stroke-miterlimit="10" fill="none" fill-rule="evenodd"/><path d="M1539.08 744.705 2696.38 744.705" stroke="#000000" stroke-width="6.875" stroke-linejoin="round" stroke-miterlimit="10" fill="none" fill-rule="evenodd"/><path d="M1539.08 878.538 2696.38 878.538" stroke="#000000" stroke-width="6.875" stroke-linejoin="round" stroke-miterlimit="10" fill="none" fill-rule="evenodd"/><path d="M1539.08 1012.37 2696.38 1012.37" stroke="#000000" stroke-width="6.875" stroke-linejoin="round" stroke-miterlimit="10" fill="none" fill-rule="evenodd"/><path d="M1539.08 1146.21 2696.38 1146.21" stroke="#000000" stroke-width="6.875" stroke-linejoin="round" stroke-miterlimit="10" fill="none" fill-rule="evenodd"/><path d="M1539.08 1280.04 2696.38 1280.04" stroke="#000000" stroke-width="6.875" stroke-linejoin="round" stroke-miterlimit="10" fill="none" fill-rule="evenodd"/><path d="M1539.08 1413.87 2696.38 1413.87" stroke="#000000" stroke-width="6.875" stroke-linejoin="round" stroke-miterlimit="10" fill="none" fill-rule="evenodd"/><path d="M1542.52 477.038 1542.52 1547.71" stroke="#000000" stroke-width="6.875" stroke-linejoin="round" stroke-miterlimit="10" fill="none" fill-rule="evenodd"/><path d="M2692.94 477.038 2692.94 1547.71" stroke="#000000" stroke-width="6.875" stroke-linejoin="round" stroke-miterlimit="10" fill="none" fill-rule="evenodd"/><text fill="#FFFFFF" font-family="Courier New,Courier New_MSFontService,sans-serif" font-weight="400" font-size="83" transform="matrix(1 0 0 1 1871.37 835)">#?6^#$gf(*<tspan fill="#000000" font-family="Times New Roman,Times New Roman_MSFontService,sans-serif" font-size="83" x="72.7489" y="135">Value of </tspan><tspan fill="#000000" font-size="83" x="370.688" y="135">b</tspan><tspan fill="#000000" font-family="Times New Roman,Times New Roman_MSFontService,sans-serif" font-size="83" x="72.7489" y="269">Value of </tspan><tspan fill="#000000" font-size="83" x="370.688" y="269">a</tspan><tspan fill="#000000" font-family="Times New Roman,Times New Roman_MSFontService,sans-serif" font-size="83" x="-158.125" y="409">Address of format string</tspan></text><path d="M2783.08 477.5 2783.08 1506.92 2773.92 1506.92 2773.92 477.5ZM2801.42 1502.33 2778.5 1548.17 2755.58 1502.33Z"/><text font-family="Courier New,Courier New_MSFontService,sans-serif" font-weight="400" font-size="83" transform="matrix(1 0 0 1 893.727 790)">p<tspan font-size="83" x="49.2708" y="0">rintf</tspan><tspan font-size="83" x="295.625" y="0">()</tspan><tspan font-family="Times New Roman,Times New Roman_MSFontService,sans-serif" font-size="83" x="394.167" y="0">’s</tspan><tspan font-family="Times New Roman,Times New Roman_MSFontService,sans-serif" font-size="83" x="-57.2687" y="105">internal pointer</tspan></text><path d="M9.95565e-06-4.58333 124.896-4.58306 124.896 4.5836-9.95565e-06 4.58333ZM120.313-22.9164 166.146 0.000360892 120.312 22.9169Z" transform="matrix(1 0 0 -1 1376.5 815.5)"/><text font-family="Times New Roman,Times New Roman_MSFontService,sans-serif" font-weight="400" font-size="83" transform="matrix(1 0 0 1 2834.79 993)">s<tspan font-size="83" x="32.0833" y="0">tack grows</tspan><tspan font-size="83" x="0" y="99">in this direction</tspan></text><path d="M3044.14 318.342 3220.59 318.342 3220.59 401.342 3044.14 401.342Z" fill="#FFFF00" fill-rule="evenodd"/><text fill="#0070C0" font-family="Courier New,Courier New_MSFontService,sans-serif" font-weight="400" font-size="73" transform="matrix(1 0 0 1 529.604 378)">p<tspan font-size="73" x="44.1146" y="0">rintf</tspan><tspan fill="#000000" font-size="73" x="264.688" y="0">(</tspan><tspan fill="#7030A0" font-size="73" x="308.802" y="0">“a has value </tspan><tspan fill="#7030A0" font-weight="700" font-size="73" x="882.292" y="0">%d</tspan><tspan fill="#7030A0" font-size="73" x="970.521" y="0">, b has value </tspan><tspan fill="#7030A0" font-weight="700" font-size="73" x="1588.13" y="0">%d</tspan><tspan fill="#7030A0" font-size="73" x="1676.35" y="0">, c is at address: </tspan><tspan fill="#7030A0" font-weight="700" font-size="73" x="2514.53" y="0">%08x</tspan><tspan fill="#548235" font-size="73" x="2690.99" y="0">\</tspan><tspan fill="#548235" font-size="73" x="2735.1" y="0">n</tspan><tspan fill="#7030A0" font-size="73" x="2779.22" y="0">”</tspan><tspan fill="#000000" font-size="73" x="2823.33" y="0">, a, b);</tspan></text></g></svg>
